X: 1
T: Reel Qubcois
M: 4/4
L: 1/8
R: reel
K: Amaj
|: E>c Bc dBGE/E/|E>d cd ecAE/E/|
E>c Bc dBGE|1 E/E/E/E/ FG BAAF/F/ :|2 E/E/E/E/ FG BAA2
|:e/e/e/e/ ec e>d BG |f/f/f/f/ fe e>e cA|
 e/e/e/e/ ec e>d BG/G/ | E>E FG BAA2 :|
